X:13
T:I've Thought On't. WR1776.13
B:Wm.Randall CDs 1776
Z:vmp.Steve Mansfield 2015
M:6/8
L:1/8
W:Right hands across & back again cross over 2 Cu. lead up
W:to the top cast off hands six round & back again hands four
W:round at bott: right hands & left at top
Q:3/8=90
K:G
GFG ABc | Bdc BAG | e2g d2g | BAG FED |
GFG ABc | Bcd efg | fed ed^c | d3 D3 :|
|: def gdB | cfa ABc | Bcd EFG | F3 D3 |
def gfe | dcB ABc | BAG AGF | G3 G,3 :|

